X: 20232
T: Johnie Faa
%R: air, reel
B: James Oswald "The Caledonian Pocket Companion" v.2 p.23 #2
Z: 2019 John Chambers <jc:trillian.mit.edu>
M: C
L: 1/8
K: Gmix
%%slurgraces 1
%%graceslurs 1
|: "_Slow"\
G2(GA) c2(e/d/c) | (AG)(Ac) (d3e) |\
G2(GA) (ce)(dc) | TA4 {GA}G4 ::\
d2(de) {e}g3a | geTdc c3e |
d2(de) g2(ag) | Te4 d3c |\
(dc)(de) g3a | (ge)(dc) Td2(c/d/e) |\
G2(GA) (ce)(dc) | TA4 {GA}G4 :|


